icon-svg/tesla-fart.svg

<svg xmlns="http://www.w3.org/2000/svg" viewBox="0 0 24 24"><path fill="#44739e" d="M21.53 12.248c-.34-3.235-1.847-4.746-3.051-5.446a5.7 5.7 0 0 0-1.683-.628c-.992-3-3.388-4.299-5.383-4.165A5.68 5.68 0 0 0 7.54 4.06a5.9 5.9 0 0 0-.886 4.299l-3.267.532a1.108 1.108 0 0 0 .356 2.188l6.057-.987a1.108 1.108 0 1 0-.356-2.187l-.609.1a3.8 3.8 0 0 1 .5-2.742 3.3 3.3 0 0 1 2.236-1.04 3.26 3.26 0 0 1 2.735 1.879 10.5 10.5 0 0 0-1.991.46 1.11 1.11 0 0 0 .716 2.099 5.3 5.3 0 0 1 4.337.062c1.1.64 1.763 1.9 1.958 3.758a4.27 4.27 0 0 1-1.039 2.96 5.2 5.2 0 0 1-3.538 1.526c-.653 1.414-2.312 2.899-3.372 2.811a2.7 2.7 0 0 1-1.825-1.17 4.4 4.4 0 0 1-.834-2.568l.724.119a1.11 1.11 0 0 0 .365-2.189l-6.057-.999a1.109 1.109 0 0 0-.362 2.187l3.123.516a6.66 6.66 0 0 0 1.264 4.254 4.84 4.84 0 0 0 3.444 2.062q.14.01.283.01a5.58 5.58 0 0 0 4.655-3.237l.015.019c1.945-.187 2.622-.453 3.835-1.938a6.44 6.44 0 0 0 1.523-4.596"/></svg>

<?xml version="1.0" encoding="UTF-8"?>
<svg width="24px" fill="#44739e" height="24px" viewBox="0 0 24 24" version="1.1" xmlns="http://www.w3.org/2000/svg" xmlns:xlink="http://www.w3.org/1999/xlink">
            <path d="M 21.525,12.247 C 21.185,9.012 19.678,7.5 18.474,6.8 A 5.68,5.68 0 0 0 16.79,6.172 c -0.992,-3 -3.388,-4.3 -5.383,-4.165 A 5.677,5.677 0 0 0 7.533,4.058 5.892,5.892 0 0 0 6.647,8.358 L 3.379,8.89 a 1.1083862,1.1083862 0 0 0 0.356,2.188 L 9.793,10.091 A 1.108,1.108 0 1 0 9.437,7.904 l -0.609,0.1 a 3.809,3.809 0 0 1 0.5,-2.743 3.311,3.311 0 0 1 2.237,-1.04 3.263,3.263 0 0 1 2.735,1.879 10.481,10.481 0 0 0 -1.991,0.46 1.109353,1.109353 0 0 0 0.716,2.1 5.31,5.31 0 0 1 4.338,0.062 c 1.1,0.64 1.763,1.9 1.958,3.758 a 4.266,4.266 0 0 1 -1.039,2.961 5.192,5.192 0 0 1 -3.539,1.526 c -0.653,1.414 -2.312,2.9 -3.372,2.812 A 2.686,2.686 0 0 1 9.545,18.608 4.4,4.4 0 0 1 8.711,16.04 l 0.724,0.119 A 1.109611,1.109611 0 0 0 9.8,13.97 l -6.058,-1 A 1.109,1.109 0 0 0 3.38,15.158 l 3.124,0.516 a 6.659,6.659 0 0 0 1.264,4.255 4.84,4.84 0 0 0 3.445,2.062 c 0.094,0.007 0.188,0.01 0.283,0.01 a 5.579,5.579 0 0 0 4.655,-3.238 l 0.015,0.019 c 1.946,-0.187 2.623,-0.453 3.836,-1.938 a 6.443,6.443 0 0 0 1.523,-4.597 z"/>

</svg>
